packages/vibrant-icons/assets/icons/ChevronRightCircle/Fill.svg

<svg width="24" height="24" viewBox="0 0 24 24" fill="none" xmlns="http://www.w3.org/2000/svg">
<path fill-rule="evenodd" clip-rule="evenodd" d="M0.899902 11.9999C0.899902 9.0349 2.0544 6.2479 4.1509 4.1514C6.2479 2.0544 9.0349 0.899902 11.9999 0.899902C14.9649 0.899902 17.7519 2.0549 19.8484 4.1514C21.9454 6.2479 23.0999 9.0349 23.0999 11.9999C23.0999 14.9649 21.9449 17.7524 19.8484 19.8489C17.7519 21.9454 14.9649 23.0999 11.9999 23.0999C9.0349 23.0999 6.2479 21.9454 4.1509 19.8489C2.0544 17.7519 0.899902 14.9649 0.899902 11.9999ZM10.6142 17.97C10.6923 18.0481 10.819 18.0481 10.8971 17.97L16.7235 12.1416C16.8015 12.0635 16.8015 11.9369 16.7235 11.8588L10.8969 6.03008C10.8188 5.95194 10.6922 5.95194 10.6141 6.03007L9.34135 7.30319C9.26328 7.38128 9.26327 7.50788 9.34134 7.58598L13.7538 12.0002L9.34151 16.4141C9.26344 16.4922 9.26344 16.6188 9.34151 16.6968L10.6142 17.97Z" fill="#0C0C0C"/>
</svg>

<svg xmlns="http://www.w3.org/2000/svg" width="24" height="24" fill="none"><path fill="#0C0C0C" fill-rule="evenodd" d="M.9 12c0-2.965 1.154-5.752 3.25-7.849A11.03 11.03 0 0 1 12 .9c2.965 0 5.752 1.155 7.848 3.251A11.03 11.03 0 0 1 23.1 12c0 2.965-1.155 5.752-3.252 7.849A11.03 11.03 0 0 1 12 23.099a11.03 11.03 0 0 1-7.85-3.25 11.03 11.03 0 0 1-3.25-7.85m9.714 5.97a.2.2 0 0 0 .283 0l5.827-5.828a.2.2 0 0 0 0-.283L10.897 6.03a.2.2 0 0 0-.283 0L9.341 7.303a.2.2 0 0 0 0 .283L13.754 12l-4.412 4.414a.2.2 0 0 0 0 .283z" clip-rule="evenodd"/></svg>
